dist/img/svg/ic_pub.svg

<svg width="15" height="17" viewBox="0 0 15 17" fill="none" xmlns="http://www.w3.org/2000/svg">
<path d="M9.35 10.9286C12.675 10.9286 15 8.67235 15 5.42903C15 2.18571 12.675 0 9.35 0H2.96875C2.70988 0 2.5 0.203886 2.5 0.455357V8.2963H0.46875C0.209883 8.2963 0 8.50019 0 8.75166V10.4732C0 10.7247 0.209883 10.9286 0.46875 10.9286H2.5V12.1429H0.46875C0.209883 12.1429 0 12.3467 0 12.5982V14.1161C0 14.3675 0.209883 14.5714 0.46875 14.5714H2.5V16.5446C2.5 16.7961 2.70988 17 2.96875 17H5.25625C5.51512 17 5.725 16.7961 5.725 16.5446V14.5714H12.0312C12.2901 14.5714 12.5 14.3675 12.5 14.1161V12.5982C12.5 12.3467 12.2901 12.1429 12.0312 12.1429H5.725V10.9286H9.35ZM5.725 2.60874H8.8C10.625 2.60874 11.725 3.71336 11.725 5.42903C11.725 7.16819 10.625 8.2963 8.75 8.2963H5.725V2.60874V2.60874Z" fill="#FF5454"/>
</svg>

<svg width="15" height="17" viewBox="0 0 15 17" fill="none" xmlns="http://www.w3.org/2000/svg"><path d="M9.35 10.929c3.325 0 5.65-2.257 5.65-5.5S12.675 0 9.35 0H2.969A.462.462 0 002.5.455v7.841H.469A.462.462 0 000 8.752v1.721c0 .252.21.456.469.456H2.5v1.214H.469a.462.462 0 00-.469.455v1.518c0 .252.21.455.469.455H2.5v1.974c0 .251.21.455.469.455h2.287a.462.462 0 00.469-.455V14.57h6.306a.462.462 0 00.469-.455v-1.518a.462.462 0 00-.469-.455H5.725v-1.214H9.35zm-3.625-8.32H8.8c1.825 0 2.925 1.104 2.925 2.82 0 1.74-1.1 2.867-2.975 2.867H5.725V2.61z" fill="#FF5454"/></svg>
